web/public/assets/manage-bundle.svg

<svg fill="none" height="44" viewBox="0 0 44 44" width="44" xmlns="http://www.w3.org/2000/svg"><rect fill="#affebf" height="44" rx="6" width="44"/><g fill="#047b5d"><path clip-rule="evenodd" d="m16 13.6c-.6365 0-1.247.2528-1.6971.7029s-.7029 1.0606-.7029 1.6971v2.4c0 .6365.2528 1.2469.7029 1.697s1.0606.703 1.6971.703h2.4c.6365 0 1.2469-.2529 1.697-.703s.703-1.0605.703-1.697v-2.4c0-.6365-.2529-1.247-.703-1.6971s-1.0605-.7029-1.697-.7029zm-.6 2.4c0-.1592.0632-.3118.1757-.4243s.2651-.1757.4243-.1757h2.4c.1591 0 .3117.0632.4242.1757.1126.1125.1758.2651.1758.4243v2.4c0 .1591-.0632.3117-.1758.4242-.1125.1126-.2651.1758-.4242.1758h-2.4c-.1592 0-.3118-.0632-.4243-.1758-.1125-.1125-.1757-.2651-.1757-.4242z" fill-rule="evenodd"/><path clip-rule="evenodd" d="m16 23.2c-.6365 0-1.247.2528-1.6971.7029s-.7029 1.0605-.7029 1.6971v2.4c0 .6365.2528 1.2469.7029 1.697s1.0606.703 1.6971.703h2.4c.6365 0 1.2469-.2529 1.697-.703s.703-1.0605.703-1.697v-2.4c0-.6366-.2529-1.247-.703-1.6971s-1.0605-.7029-1.697-.7029zm-.6 2.4c0-.1592.0632-.3118.1757-.4243s.2651-.1757.4243-.1757h2.4c.1591 0 .3117.0632.4242.1757.1126.1125.1758.2651.1758.4243v2.4c0 .1591-.0632.3117-.1758.4242-.1125.1125-.2651.1758-.4242.1758h-2.4c-.1592 0-.3118-.0633-.4243-.1758s-.1757-.2651-.1757-.4242z" fill-rule="evenodd"/><path d="m22 15.7c0-.2386.0948-.4676.2636-.6363.1688-.1688.3977-.2637.6364-.2637h6.6c.2387 0 .4676.0949.6364.2637.1688.1687.2636.3977.2636.6363 0 .2387-.0948.4677-.2636.6364-.1688.1688-.3977.2636-.6364.2636h-6.6c-.2387 0-.4676-.0948-.6364-.2636-.1688-.1687-.2636-.3977-.2636-.6364z"/><path d="m22.9 17.8c-.2387 0-.4676.0949-.6364.2637-.1688.1687-.2636.3977-.2636.6363 0 .2387.0948.4677.2636.6364.1688.1688.3977.2636.6364.2636h5.4c.2387 0 .4676-.0948.6364-.2636.1688-.1687.2636-.3977.2636-.6364 0-.2386-.0948-.4676-.2636-.6363-.1688-.1688-.3977-.2637-.6364-.2637z"/><path d="m22 25.3c0-.2387.0948-.4676.2636-.6364s.3977-.2636.6364-.2636h6.6c.2387 0 .4676.0948.6364.2636s.2636.3977.2636.6364-.0948.4676-.2636.6364-.3977.2636-.6364.2636h-6.6c-.2387 0-.4676-.0948-.6364-.2636s-.2636-.3977-.2636-.6364z"/><path d="m22.9 27.4c-.2387 0-.4676.0948-.6364.2636s-.2636.3977-.2636.6364.0948.4676.2636.6364.3977.2636.6364.2636h4.2c.2387 0 .4676-.0948.6364-.2636s.2636-.3977.2636-.6364-.0948-.4676-.2636-.6364-.3977-.2636-.6364-.2636z"/></g></svg>

<svg width="44" height="44" viewBox="0 0 44 44" fill="none" xmlns="http://www.w3.org/2000/svg">
<rect width="44" height="44" rx="6" fill="#AFFEBF"/>
<path fill-rule="evenodd" clip-rule="evenodd" d="M16 13.6C15.3635 13.6 14.753 13.8528 14.3029 14.3029C13.8528 14.753 13.6 15.3635 13.6 16V18.4C13.6 19.0365 13.8528 19.6469 14.3029 20.097C14.753 20.5471 15.3635 20.8 16 20.8H18.4C19.0365 20.8 19.6469 20.5471 20.097 20.097C20.5471 19.6469 20.8 19.0365 20.8 18.4V16C20.8 15.3635 20.5471 14.753 20.097 14.3029C19.6469 13.8528 19.0365 13.6 18.4 13.6H16ZM15.4 16C15.4 15.8408 15.4632 15.6882 15.5757 15.5757C15.6882 15.4632 15.8408 15.4 16 15.4H18.4C18.5591 15.4 18.7117 15.4632 18.8242 15.5757C18.9368 15.6882 19 15.8408 19 16V18.4C19 18.5591 18.9368 18.7117 18.8242 18.8242C18.7117 18.9368 18.5591 19 18.4 19H16C15.8408 19 15.6882 18.9368 15.5757 18.8242C15.4632 18.7117 15.4 18.5591 15.4 18.4V16Z" fill="#047B5D"/>
<path fill-rule="evenodd" clip-rule="evenodd" d="M16 23.2C15.3635 23.2 14.753 23.4528 14.3029 23.9029C13.8528 24.353 13.6 24.9634 13.6 25.6V28C13.6 28.6365 13.8528 29.2469 14.3029 29.697C14.753 30.1471 15.3635 30.4 16 30.4H18.4C19.0365 30.4 19.6469 30.1471 20.097 29.697C20.5471 29.2469 20.8 28.6365 20.8 28V25.6C20.8 24.9634 20.5471 24.353 20.097 23.9029C19.6469 23.4528 19.0365 23.2 18.4 23.2H16ZM15.4 25.6C15.4 25.4408 15.4632 25.2882 15.5757 25.1757C15.6882 25.0632 15.8408 25 16 25H18.4C18.5591 25 18.7117 25.0632 18.8242 25.1757C18.9368 25.2882 19 25.4408 19 25.6V28C19 28.1591 18.9368 28.3117 18.8242 28.4242C18.7117 28.5367 18.5591 28.6 18.4 28.6H16C15.8408 28.6 15.6882 28.5367 15.5757 28.4242C15.4632 28.3117 15.4 28.1591 15.4 28V25.6Z" fill="#047B5D"/>
<path d="M22 15.7C22 15.4614 22.0948 15.2324 22.2636 15.0637C22.4324 14.8949 22.6613 14.8 22.9 14.8H29.5C29.7387 14.8 29.9676 14.8949 30.1364 15.0637C30.3052 15.2324 30.4 15.4614 30.4 15.7C30.4 15.9387 30.3052 16.1677 30.1364 16.3364C29.9676 16.5052 29.7387 16.6 29.5 16.6H22.9C22.6613 16.6 22.4324 16.5052 22.2636 16.3364C22.0948 16.1677 22 15.9387 22 15.7Z" fill="#047B5D"/>
<path d="M22.9 17.8C22.6613 17.8 22.4324 17.8949 22.2636 18.0637C22.0948 18.2324 22 18.4614 22 18.7C22 18.9387 22.0948 19.1677 22.2636 19.3364C22.4324 19.5052 22.6613 19.6 22.9 19.6H28.3C28.5387 19.6 28.7676 19.5052 28.9364 19.3364C29.1052 19.1677 29.2 18.9387 29.2 18.7C29.2 18.4614 29.1052 18.2324 28.9364 18.0637C28.7676 17.8949 28.5387 17.8 28.3 17.8H22.9Z" fill="#047B5D"/>
<path d="M22 25.3C22 25.0613 22.0948 24.8324 22.2636 24.6636C22.4324 24.4948 22.6613 24.4 22.9 24.4H29.5C29.7387 24.4 29.9676 24.4948 30.1364 24.6636C30.3052 24.8324 30.4 25.0613 30.4 25.3C30.4 25.5387 30.3052 25.7676 30.1364 25.9364C29.9676 26.1052 29.7387 26.2 29.5 26.2H22.9C22.6613 26.2 22.4324 26.1052 22.2636 25.9364C22.0948 25.7676 22 25.5387 22 25.3Z" fill="#047B5D"/>
<path d="M22.9 27.4C22.6613 27.4 22.4324 27.4948 22.2636 27.6636C22.0948 27.8324 22 28.0613 22 28.3C22 28.5387 22.0948 28.7676 22.2636 28.9364C22.4324 29.1052 22.6613 29.2 22.9 29.2H27.1C27.3387 29.2 27.5676 29.1052 27.7364 28.9364C27.9052 28.7676 28 28.5387 28 28.3C28 28.0613 27.9052 27.8324 27.7364 27.6636C27.5676 27.4948 27.3387 27.4 27.1 27.4H22.9Z" fill="#047B5D"/>
</svg>
